public/logo_header_white.svg

<svg width="512" height="242" viewBox="0 0 512 242" fill="none" xmlns="http://www.w3.org/2000/svg">
<rect width="512" height="242" fill="white"/>
<path d="M164.31 148.106V172.794H160.992V148.106H151.788V145.223H173.513V148.106H164.31ZM178.04 172.794V145.223H195.025V148.106H181.358V157.389H194.551V160.272H181.358V169.91H195.025V172.794H178.04ZM210.928 173.268C207.558 173.268 205.043 172.043 203.384 169.594C201.751 167.145 200.935 163.617 200.935 159.008C200.935 154.4 201.751 150.871 203.384 148.422C205.043 145.973 207.558 144.749 210.928 144.749C212.192 144.749 213.285 144.92 214.207 145.262C215.128 145.605 215.918 146.065 216.577 146.645C217.235 147.224 217.788 147.882 218.236 148.62C218.683 149.331 219.078 150.055 219.421 150.792L216.577 152.096C216.34 151.49 216.063 150.924 215.747 150.397C215.431 149.844 215.049 149.37 214.602 148.975C214.18 148.554 213.667 148.225 213.061 147.988C212.482 147.751 211.771 147.632 210.928 147.632C208.743 147.632 207.11 148.462 206.03 150.121C204.977 151.78 204.45 153.992 204.45 156.757V161.26C204.45 164.025 204.977 166.237 206.03 167.896C207.11 169.555 208.743 170.384 210.928 170.384C211.771 170.384 212.482 170.266 213.061 170.029C213.667 169.792 214.18 169.476 214.602 169.081C215.049 168.659 215.431 168.185 215.747 167.659C216.063 167.106 216.34 166.526 216.577 165.921L219.421 167.224C219.078 167.988 218.683 168.725 218.236 169.436C217.788 170.147 217.235 170.792 216.577 171.372C215.918 171.951 215.128 172.412 214.207 172.754C213.285 173.097 212.192 173.268 210.928 173.268ZM239.076 160.272H228.332V172.794H225.014V145.223H228.332V157.389H239.076V145.223H242.394V172.794H239.076V160.272ZM251.977 149.568H251.701V172.794H248.699V145.223H253.399L262.8 168.449H263.077V145.223H266.079V172.794H261.378L251.977 149.568ZM281.074 173.268C279.388 173.268 277.94 172.952 276.729 172.32C275.517 171.661 274.517 170.727 273.727 169.515C272.937 168.304 272.357 166.816 271.989 165.052C271.62 163.287 271.436 161.273 271.436 159.008C271.436 156.77 271.62 154.769 271.989 153.004C272.357 151.214 272.937 149.713 273.727 148.501C274.517 147.29 275.517 146.368 276.729 145.736C277.94 145.078 279.388 144.749 281.074 144.749C282.759 144.749 284.207 145.078 285.419 145.736C286.63 146.368 287.631 147.29 288.421 148.501C289.211 149.713 289.79 151.214 290.159 153.004C290.527 154.769 290.712 156.77 290.712 159.008C290.712 161.273 290.527 163.287 290.159 165.052C289.79 166.816 289.211 168.304 288.421 169.515C287.631 170.727 286.63 171.661 285.419 172.32C284.207 172.952 282.759 173.268 281.074 173.268ZM281.074 170.384C282.18 170.384 283.114 170.174 283.878 169.752C284.642 169.305 285.274 168.686 285.774 167.896C286.274 167.106 286.63 166.158 286.841 165.052C287.078 163.919 287.196 162.655 287.196 161.26V156.757C287.196 155.387 287.078 154.137 286.841 153.004C286.63 151.872 286.274 150.911 285.774 150.121C285.274 149.331 284.642 148.725 283.878 148.304C283.114 147.856 282.18 147.632 281.074 147.632C279.968 147.632 279.033 147.856 278.269 148.304C277.505 148.725 276.873 149.331 276.373 150.121C275.873 150.911 275.504 151.872 275.267 153.004C275.056 154.137 274.951 155.387 274.951 156.757V161.26C274.951 162.655 275.056 163.919 275.267 165.052C275.504 166.158 275.873 167.106 276.373 167.896C276.873 168.686 277.505 169.305 278.269 169.752C279.033 170.174 279.968 170.384 281.074 170.384ZM297.648 172.794V145.223H300.966V169.91H314.041V172.794H297.648ZM328.443 173.268C326.757 173.268 325.309 172.952 324.098 172.32C322.886 171.661 321.886 170.727 321.096 169.515C320.306 168.304 319.726 166.816 319.358 165.052C318.989 163.287 318.805 161.273 318.805 159.008C318.805 156.77 318.989 154.769 319.358 153.004C319.726 151.214 320.306 149.713 321.096 148.501C321.886 147.29 322.886 146.368 324.098 145.736C325.309 145.078 326.757 144.749 328.443 144.749C330.128 144.749 331.576 145.078 332.788 145.736C333.999 146.368 335 147.29 335.79 148.501C336.58 149.713 337.159 151.214 337.528 153.004C337.896 154.769 338.081 156.77 338.081 159.008C338.081 161.273 337.896 163.287 337.528 165.052C337.159 166.816 336.58 168.304 335.79 169.515C335 170.727 333.999 171.661 332.788 172.32C331.576 172.952 330.128 173.268 328.443 173.268ZM328.443 170.384C329.549 170.384 330.484 170.174 331.247 169.752C332.011 169.305 332.643 168.686 333.143 167.896C333.644 167.106 333.999 166.158 334.21 165.052C334.447 163.919 334.565 162.655 334.565 161.26V156.757C334.565 155.387 334.447 154.137 334.21 153.004C333.999 151.872 333.644 150.911 333.143 150.121C332.643 149.331 332.011 148.725 331.247 148.304C330.484 147.856 329.549 147.632 328.443 147.632C327.337 147.632 326.402 147.856 325.638 148.304C324.875 148.725 324.243 149.331 323.742 150.121C323.242 150.911 322.873 151.872 322.636 153.004C322.426 154.137 322.32 155.387 322.32 156.757V161.26C322.32 162.655 322.426 163.919 322.636 165.052C322.873 166.158 323.242 167.106 323.742 167.896C324.243 168.686 324.875 169.305 325.638 169.752C326.402 170.174 327.337 170.384 328.443 170.384ZM357.815 169.12H357.618C357.381 169.647 357.104 170.16 356.788 170.661C356.472 171.161 356.064 171.609 355.564 172.004C355.09 172.372 354.51 172.675 353.826 172.912C353.141 173.149 352.325 173.268 351.377 173.268C348.375 173.268 346.136 172.056 344.662 169.634C343.213 167.211 342.489 163.735 342.489 159.206C342.489 154.466 343.292 150.871 344.899 148.422C346.505 145.973 348.98 144.749 352.325 144.749C353.615 144.749 354.734 144.92 355.682 145.262C356.63 145.605 357.433 146.065 358.092 146.645C358.776 147.224 359.343 147.882 359.79 148.62C360.238 149.331 360.607 150.055 360.896 150.792L358.052 152.096C357.815 151.49 357.539 150.924 357.223 150.397C356.933 149.844 356.564 149.37 356.117 148.975C355.695 148.554 355.182 148.225 354.576 147.988C353.971 147.751 353.26 147.632 352.443 147.632C350.231 147.632 348.599 148.462 347.545 150.121C346.518 151.78 346.005 153.992 346.005 156.757V161.023C346.005 162.418 346.11 163.696 346.321 164.854C346.531 165.987 346.874 166.974 347.348 167.817C347.848 168.659 348.48 169.318 349.244 169.792C350.034 170.239 350.995 170.463 352.127 170.463C353.918 170.463 355.314 169.923 356.314 168.844C357.315 167.764 357.815 166.368 357.815 164.657V161.813H352.009V159.166H360.896V172.794H357.815V169.12ZM367.28 172.794V170.147H374.153V147.869H367.28V145.223H384.344V147.869H377.471V170.147H384.344V172.794H367.28ZM391.201 172.794V145.223H408.186V148.106H394.519V157.389H407.712V160.272H394.519V169.91H408.186V172.794H391.201ZM423.102 173.268C420.627 173.268 418.599 172.82 417.019 171.925C415.439 171.003 414.135 169.831 413.108 168.409L415.518 166.434C416.598 167.777 417.73 168.778 418.915 169.436C420.126 170.095 421.561 170.424 423.22 170.424C425.222 170.424 426.749 169.963 427.802 169.041C428.856 168.12 429.382 166.829 429.382 165.17C429.382 163.827 429.001 162.787 428.237 162.05C427.473 161.286 426.143 160.746 424.247 160.43L421.166 159.917C419.823 159.68 418.691 159.324 417.769 158.85C416.874 158.376 416.15 157.81 415.597 157.152C415.044 156.467 414.649 155.73 414.412 154.94C414.175 154.123 414.056 153.281 414.056 152.412C414.056 149.884 414.886 147.975 416.545 146.684C418.204 145.394 420.442 144.749 423.26 144.749C425.472 144.749 427.328 145.117 428.829 145.855C430.357 146.592 431.581 147.632 432.503 148.975L430.172 150.99C429.409 149.989 428.487 149.173 427.407 148.541C426.328 147.909 424.932 147.593 423.22 147.593C421.351 147.593 419.916 147.988 418.915 148.778C417.914 149.568 417.414 150.753 417.414 152.333C417.414 153.57 417.783 154.584 418.52 155.374C419.284 156.138 420.64 156.691 422.588 157.033L425.551 157.547C426.894 157.784 428.026 158.139 428.948 158.613C429.87 159.087 430.607 159.653 431.16 160.312C431.739 160.97 432.147 161.707 432.384 162.524C432.621 163.34 432.74 164.196 432.74 165.091C432.74 167.646 431.897 169.647 430.212 171.095C428.553 172.544 426.183 173.268 423.102 173.268Z" fill="black"/>
<path d="M176.27 136.84C170.638 136.84 165.742 135.912 161.582 134.056C157.422 132.2 154.062 129.672 151.502 126.472L159.854 117.256C162.286 119.944 164.942 121.928 167.822 123.208C170.766 124.488 173.742 125.128 176.75 125.128C180.206 125.128 182.83 124.36 184.622 122.824C186.414 121.288 187.31 119.08 187.31 116.2C187.31 113.832 186.606 112.04 185.198 110.824C183.854 109.608 181.55 108.744 178.286 108.232L171.278 107.08C165.262 106.056 160.91 103.848 158.222 100.456C155.534 96.9999 154.19 92.8079 154.19 87.8799C154.19 81.4159 156.302 76.4239 160.526 72.9039C164.75 69.3199 170.67 67.5279 178.286 67.5279C183.47 67.5279 187.982 68.3279 191.822 69.9279C195.662 71.5279 198.766 73.7039 201.134 76.4559L192.974 85.5759C191.182 83.5919 189.07 82.0559 186.638 80.9679C184.206 79.8159 181.454 79.2399 178.382 79.2399C171.918 79.2399 168.686 81.8959 168.686 87.2079C168.686 89.5119 169.39 91.2399 170.798 92.3919C172.27 93.5439 174.638 94.4079 177.902 94.9839L184.91 96.2319C190.35 97.1919 194.542 99.2399 197.486 102.376C200.43 105.512 201.902 109.736 201.902 115.048C201.902 118.184 201.358 121.096 200.27 123.784C199.182 126.408 197.55 128.712 195.374 130.696C193.198 132.616 190.51 134.12 187.31 135.208C184.174 136.296 180.494 136.84 176.27 136.84ZM213.288 135.688V125.032H227.688V79.3359H213.288V68.6799H256.488V79.3359H242.088V125.032H256.488V135.688H213.288ZM282.851 91.1439H281.795V135.688H269.507V68.6799H286.787L302.051 113.224H303.107V68.6799H315.395V135.688H298.115L282.851 91.1439ZM340.413 91.1439H339.357V135.688H327.069V68.6799H344.349L359.613 113.224H360.669V68.6799H372.957V135.688H355.677L340.413 91.1439ZM407.576 136.84C398.616 136.84 391.992 133.8 387.704 127.72C383.48 121.64 381.368 113.128 381.368 102.184C381.368 91.2399 383.48 82.7279 387.704 76.6479C391.992 70.5679 398.616 67.5279 407.576 67.5279C416.536 67.5279 423.128 70.5679 427.352 76.6479C431.64 82.7279 433.784 91.2399 433.784 102.184C433.784 113.128 431.64 121.64 427.352 127.72C423.128 133.8 416.536 136.84 407.576 136.84ZM407.576 125.224C411.672 125.224 414.488 123.72 416.024 120.712C417.624 117.64 418.424 113.384 418.424 107.944V96.3279C418.424 90.9519 417.624 86.7599 416.024 83.7519C414.488 80.6799 411.672 79.1439 407.576 79.1439C403.48 79.1439 400.632 80.6799 399.032 83.7519C397.496 86.7599 396.728 90.9519 396.728 96.3279V108.04C396.728 113.416 397.496 117.64 399.032 120.712C400.632 123.72 403.48 125.224 407.576 125.224Z" fill="black"/>
<path d="M95.0698 122.048L116.154 116.561L136.703 122.096M95.0698 122.048L74.4435 127.165L53.5373 121.896M95.0698 122.048L89.5051 100.849L95.0222 79.6637M95.0698 122.048L100.205 143.297L95.0166 164.534" stroke="black" stroke-width="2"/>
<path d="M95.0691 122.048L61.1545 156.573M95.0691 122.048L128.984 87.5216M95.0691 122.048L61.0767 87.4424M95.0691 122.048L129.061 156.653" stroke="black" stroke-width="2"/>
<path d="M112.392 122.252C112.234 131.717 104.431 139.382 94.9633 139.371C85.4959 139.36 77.9496 131.677 78.1081 122.212C78.2666 112.746 86.0698 105.082 95.5372 105.093C105.005 105.104 112.551 112.786 112.392 122.252Z" fill="black" stroke="black" stroke-width="3"/>
<path d="M99.1131 160.364C101.328 162.619 101.329 166.267 99.1247 168.511C96.9202 170.755 93.3371 170.755 91.1217 168.499C88.9063 166.244 88.9057 162.596 91.1102 160.352C93.3147 158.108 96.8977 158.109 99.1131 160.364Z" fill="#FFD700" stroke="black" stroke-width="3"/>
<path d="M140.699 118.029C142.914 120.284 142.915 123.932 140.71 126.176C138.506 128.42 134.923 128.419 132.707 126.164C130.492 123.909 130.491 120.261 132.696 118.017C134.9 115.773 138.483 115.773 140.699 118.029Z" fill="#FFD700" stroke="black" stroke-width="3"/>
<path d="M99.0176 75.5961C101.233 77.8514 101.234 81.499 99.0292 83.7432C96.8247 85.9875 93.2417 85.9868 91.0263 83.7315C88.8109 81.4761 88.8102 77.8285 91.0147 75.5843C93.2192 73.3401 96.8022 73.3407 99.0176 75.5961Z" fill="#FFD700" stroke="black" stroke-width="3"/>
<path d="M57.4305 117.931C59.6459 120.187 59.6465 123.834 57.442 126.079C55.2376 128.323 51.6545 128.322 49.4391 126.067C47.2237 123.811 47.2231 120.164 49.4276 117.92C51.632 115.675 55.2151 115.676 57.4305 117.931Z" fill="#FFD700" stroke="black" stroke-width="3"/>
<path d="M95.2828 106.772L108.607 114.519L108.625 129.983L95.3176 137.699L81.9931 129.951L81.9757 114.488L95.2828 106.772Z" fill="#FFD700"/>
<path d="M95.3002 122.235L95.3176 137.699M95.3002 122.235L108.607 114.519M95.3002 122.235L81.9757 114.488M108.607 114.519L95.2828 106.772L81.9757 114.488M108.607 114.519L108.625 129.983L95.3176 137.699M95.3176 137.699L81.9931 129.951L81.9757 114.488" stroke="black" stroke-width="2"/>
<path d="M118.592 145.468L134.371 141.299L145.98 152.909L141.81 168.687L126.031 172.856L114.422 161.247L118.592 145.468Z" fill="#FFD700"/>
<path d="M130.201 157.078L141.81 168.687M130.201 157.078L134.371 141.299M130.201 157.078L114.422 161.247M134.371 141.299L118.592 145.468L114.422 161.247M134.371 141.299L145.98 152.909L141.81 168.687M141.81 168.687L126.031 172.856L114.422 161.247" stroke="black" stroke-width="2"/>
<path d="M47.1784 73.7238L62.9573 69.5548L74.5665 81.1644L70.3967 96.9431L54.6178 101.112L43.0087 89.5026L47.1784 73.7238Z" fill="#FFD700"/>
<path d="M58.7876 85.3335L70.3967 96.9431M58.7876 85.3335L62.9573 69.5548M58.7876 85.3335L43.0087 89.5026M62.9573 69.5548L47.1784 73.7238L43.0087 89.5026M62.9573 69.5548L74.5665 81.1644L70.3967 96.9431M70.3967 96.9431L54.6178 101.112L43.0087 89.5026" stroke="black" stroke-width="2"/>
<path d="M70.4511 146.365L74.6564 162.153L63.0733 173.736L47.285 169.53L43.0797 153.741L54.6628 142.159L70.4511 146.365Z" fill="#FFD700"/>
<path d="M58.868 157.947L47.285 169.53M58.868 157.947L74.6564 162.153M58.868 157.947L54.6628 142.159M74.6564 162.153L70.4511 146.365L54.6628 142.159M74.6564 162.153L63.0733 173.736L47.285 169.53M47.285 169.53L43.0797 153.741L54.6628 142.159" stroke="black" stroke-width="2"/>
<path d="M142.655 73.8339L146.86 89.6223L135.277 101.205L119.489 96.9991L115.284 81.2106L126.867 69.628L142.655 73.8339Z" fill="#FFD700"/>
<path d="M131.072 85.4165L119.489 96.9991M131.072 85.4165L146.86 89.6223M131.072 85.4165L126.867 69.628M146.86 89.6223L142.655 73.8339L126.867 69.628M146.86 89.6223L135.277 101.205L119.489 96.9991M119.489 96.9991L115.284 81.2106L126.867 69.628" stroke="black" stroke-width="2"/>
</svg>

<svg xmlns="http://www.w3.org/2000/svg" width="512" height="242" fill="none"><path fill="#fff" d="M0 0h512v242H0z"/><path fill="#000" d="M164.31 148.106v24.688h-3.318v-24.688h-9.204v-2.883h21.725v2.883zm13.73 24.688v-27.571h16.985v2.883h-13.667v9.283h13.193v2.883h-13.193v9.638h13.667v2.884zm32.888.474q-5.055 0-7.544-3.674-2.45-3.673-2.449-10.586 0-6.912 2.449-10.586 2.489-3.673 7.544-3.673 1.896 0 3.279.513 1.382.514 2.37 1.383a8.5 8.5 0 0 1 1.659 1.975q.67 1.067 1.185 2.172l-2.844 1.304a11.3 11.3 0 0 0-.83-1.699 5.6 5.6 0 0 0-1.145-1.422 4.4 4.4 0 0 0-1.541-.987q-.868-.356-2.133-.356-3.278 0-4.898 2.489-1.58 2.489-1.58 6.636v4.503q0 4.148 1.58 6.636 1.62 2.488 4.898 2.488 1.264 0 2.133-.355a4.8 4.8 0 0 0 1.541-.948 6.7 6.7 0 0 0 1.145-1.422q.474-.83.83-1.738l2.844 1.303a18 18 0 0 1-1.185 2.212 8.9 8.9 0 0 1-1.659 1.936q-.988.869-2.37 1.382-1.383.514-3.279.514m28.148-12.996h-10.744v12.522h-3.318v-27.571h3.318v12.166h10.744v-12.166h3.318v27.571h-3.318zm12.901-10.704h-.276v23.226h-3.002v-27.571h4.7l9.401 23.226h.277v-23.226h3.002v27.571h-4.701zm29.097 23.7q-2.529 0-4.345-.948-1.818-.988-3.002-2.805-1.186-1.817-1.738-4.463-.553-2.647-.553-6.044 0-3.357.553-6.004.552-2.685 1.738-4.503 1.184-1.817 3.002-2.765 1.816-.987 4.345-.987 2.527 0 4.345.987 1.817.948 3.002 2.765t1.738 4.503q.553 2.647.553 6.004 0 3.397-.553 6.044t-1.738 4.463q-1.185 1.817-3.002 2.805-1.818.948-4.345.948m0-2.884q1.659 0 2.804-.632a5.54 5.54 0 0 0 1.896-1.856q.75-1.185 1.067-2.844.355-1.7.355-3.792v-4.503q0-2.054-.355-3.753-.317-1.698-1.067-2.883t-1.896-1.817q-1.146-.672-2.804-.672-1.659 0-2.805.672-1.146.632-1.896 1.817t-1.106 2.883q-.316 1.699-.316 3.753v4.503q0 2.093.316 3.792.356 1.659 1.106 2.844a5.54 5.54 0 0 0 1.896 1.856q1.146.632 2.805.632m16.574 2.41v-27.571h3.318v24.687h13.075v2.884zm30.795.474q-2.529 0-4.345-.948-1.817-.988-3.002-2.805-1.186-1.817-1.738-4.463-.553-2.647-.553-6.044 0-3.357.553-6.004.552-2.685 1.738-4.503 1.185-1.817 3.002-2.765 1.816-.987 4.345-.987 2.527 0 4.345.987 1.817.948 3.002 2.765t1.738 4.503q.553 2.647.553 6.004 0 3.397-.553 6.044t-1.738 4.463q-1.185 1.817-3.002 2.805-1.818.948-4.345.948m0-2.884q1.66 0 2.804-.632a5.54 5.54 0 0 0 1.896-1.856q.751-1.185 1.067-2.844.355-1.7.355-3.792v-4.503q0-2.054-.355-3.753-.316-1.698-1.067-2.883t-1.896-1.817q-1.145-.672-2.804-.672t-2.805.672q-1.144.632-1.896 1.817-.75 1.185-1.106 2.883-.315 1.699-.316 3.753v4.503q0 2.093.316 3.792.356 1.659 1.106 2.844a5.56 5.56 0 0 0 1.896 1.856q1.146.632 2.805.632m29.372-1.264h-.197q-.356.79-.83 1.541t-1.224 1.343q-.712.552-1.738.908t-2.449.356q-4.503 0-6.715-3.634-2.173-3.635-2.173-10.428 0-7.11 2.41-10.784 2.409-3.673 7.426-3.673 1.935 0 3.357.513 1.422.514 2.41 1.383a8 8 0 0 1 1.698 1.975q.672 1.067 1.106 2.172l-2.844 1.304a11.3 11.3 0 0 0-.829-1.699 4.9 4.9 0 0 0-1.106-1.422 4.4 4.4 0 0 0-1.541-.987q-.907-.356-2.133-.356-3.317 0-4.898 2.489-1.54 2.489-1.54 6.636v4.266q0 2.093.316 3.831.316 1.699 1.027 2.963.75 1.264 1.896 1.975 1.185.67 2.883.671 2.687 0 4.187-1.619 1.501-1.62 1.501-4.187v-2.844h-5.806v-2.647h8.887v13.628h-3.081zm9.465 3.674v-2.647h6.873v-22.278h-6.873v-2.646h17.064v2.646h-6.873v22.278h6.873v2.647zm23.921 0v-27.571h16.985v2.883h-13.667v9.283h13.193v2.883h-13.193v9.638h13.667v2.884zm31.901.474q-3.713 0-6.083-1.343-2.37-1.383-3.911-3.516l2.41-1.975q1.62 2.015 3.397 3.002 1.817.988 4.305.988 3.003 0 4.582-1.383 1.58-1.382 1.58-3.871 0-2.014-1.145-3.12-1.146-1.146-3.99-1.62l-3.081-.513q-2.014-.356-3.397-1.067-1.343-.711-2.172-1.698a6.5 6.5 0 0 1-1.185-2.212 9 9 0 0 1-.356-2.528q0-3.792 2.489-5.728t6.715-1.935q3.318 0 5.569 1.106 2.292 1.105 3.674 3.12l-2.331 2.015a9.4 9.4 0 0 0-2.765-2.449q-1.619-.948-4.187-.948-2.804 0-4.305 1.185t-1.501 3.555q0 1.856 1.106 3.041 1.146 1.146 4.068 1.659l2.963.514q2.014.355 3.397 1.066 1.383.71 2.212 1.699a5.7 5.7 0 0 1 1.224 2.212 9.2 9.2 0 0 1 .356 2.567q0 3.832-2.528 6.004-2.488 2.173-7.11 2.173M176.27 136.84q-8.448 0-14.688-2.784t-10.08-7.584l8.352-9.216q3.648 4.032 7.968 5.952 4.416 1.92 8.928 1.92 5.184 0 7.872-2.304t2.688-6.624q0-3.552-2.112-5.376-2.016-1.824-6.912-2.592l-7.008-1.152q-9.024-1.536-13.056-6.624-4.032-5.184-4.032-12.576 0-9.696 6.336-14.976 6.336-5.376 17.76-5.376 7.776 0 13.536 2.4t9.312 6.528l-8.16 9.12a18.8 18.8 0 0 0-6.336-4.608q-3.648-1.728-8.256-1.728-9.696 0-9.696 7.968 0 3.456 2.112 5.184 2.208 1.728 7.104 2.592l7.008 1.248q8.16 1.44 12.576 6.144t4.416 12.672q0 4.704-1.632 8.736-1.632 3.936-4.896 6.912-3.264 2.88-8.064 4.512-4.704 1.632-11.04 1.632m37.018-1.152v-10.656h14.4V79.336h-14.4V68.68h43.2v10.656h-14.4v45.696h14.4v10.656zm69.563-44.544h-1.056v44.544h-12.288V68.68h17.28l15.264 44.544h1.056V68.68h12.288v67.008h-17.28zm57.562 0h-1.056v44.544h-12.288V68.68h17.28l15.264 44.544h1.056V68.68h12.288v67.008h-17.28zm67.163 45.696q-13.44 0-19.872-9.12-6.336-9.12-6.336-25.536t6.336-25.536q6.432-9.12 19.872-9.12t19.776 9.12q6.432 9.12 6.432 25.536t-6.432 25.536q-6.336 9.12-19.776 9.12m0-11.616q6.144 0 8.448-4.512 2.4-4.608 2.4-12.768V96.328q0-8.064-2.4-12.576-2.304-4.608-8.448-4.608t-8.544 4.608q-2.304 4.512-2.304 12.576v11.712q0 8.064 2.304 12.672 2.4 4.512 8.544 4.512"/><path stroke="#000" stroke-width="2" d="m95.07 122.048 21.084-5.487 20.549 5.535m-41.633-.048-20.626 5.117-20.907-5.269m41.533.152-5.565-21.199 5.517-21.185m.048 42.384 5.135 21.249-5.188 21.237M95.07 122.048l-33.915 34.525m33.914-34.525 33.915-34.526m-33.915 34.526L61.077 87.442m33.992 34.606 33.992 34.605"/><path fill="#000" stroke="#000" stroke-width="3" d="M112.392 122.252c-.158 9.465-7.961 17.13-17.429 17.119a16.823 16.823 0 0 1-16.855-17.159c.159-9.466 7.962-17.13 17.43-17.119a16.82 16.82 0 0 1 16.854 17.159Z"/><path fill="gold" stroke="#000" stroke-width="3" d="M99.113 160.364c2.215 2.255 2.216 5.903.012 8.147a5.59 5.59 0 0 1-8.003-.012c-2.216-2.255-2.216-5.903-.012-8.147a5.59 5.59 0 0 1 8.003.012ZM140.699 118.029c2.215 2.255 2.216 5.903.011 8.147a5.59 5.59 0 0 1-8.003-.012c-2.215-2.255-2.216-5.903-.011-8.147a5.59 5.59 0 0 1 8.003.012ZM99.018 75.596c2.215 2.255 2.216 5.903.011 8.147a5.59 5.59 0 0 1-8.003-.011c-2.215-2.256-2.216-5.903-.011-8.148a5.59 5.59 0 0 1 8.003.012ZM57.43 117.931c2.216 2.256 2.217 5.903.012 8.148a5.59 5.59 0 0 1-8.003-.012c-2.215-2.256-2.216-5.903-.011-8.147a5.59 5.59 0 0 1 8.003.011Z"/><path fill="gold" d="m95.283 106.772 13.324 7.747.018 15.464-13.307 7.716-13.325-7.748-.017-15.463z"/><path stroke="#000" stroke-width="2" d="m95.3 122.235.018 15.464m-.018-15.464 13.307-7.716M95.3 122.235l-13.324-7.747m26.631.031-13.324-7.747-13.307 7.716m26.631.031.018 15.464-13.307 7.716m0 0-13.325-7.748-.017-15.463"/><path fill="gold" d="m118.592 145.468 15.779-4.169 11.609 11.61-4.17 15.778-15.779 4.169-11.609-11.609z"/><path stroke="#000" stroke-width="2" d="m130.201 157.078 11.609 11.609m-11.609-11.609 4.17-15.779m-4.17 15.779-15.779 4.169m19.949-19.948-15.779 4.169-4.17 15.779m19.949-19.948 11.609 11.61-4.17 15.778m0 0-15.779 4.169-11.609-11.609"/><path fill="gold" d="m47.178 73.724 15.78-4.17 11.609 11.61-4.17 15.78-15.78 4.168-11.608-11.61z"/><path stroke="#000" stroke-width="2" d="m58.788 85.334 11.609 11.61m-11.61-11.61 4.17-15.78m-4.17 15.78L43.01 89.503m19.948-19.948-15.779 4.169-4.17 15.779m19.95-19.948 11.609 11.61-4.17 15.778m0 0-15.78 4.169-11.608-11.61"/><path fill="gold" d="m70.451 146.365 4.205 15.788-11.583 11.583-15.788-4.206-4.205-15.789 11.583-11.582z"/><path stroke="#000" stroke-width="2" d="M58.868 157.947 47.285 169.53m11.583-11.583 15.788 4.206m-15.788-4.206-4.205-15.788m19.993 19.994-4.205-15.788-15.788-4.206m19.993 19.994-11.583 11.583-15.788-4.206m0 0-4.205-15.789 11.583-11.582"/><path fill="gold" d="m142.655 73.834 4.205 15.788-11.583 11.583-15.788-4.206-4.205-15.788 11.583-11.583z"/><path stroke="#000" stroke-width="2" d="m131.072 85.417-11.583 11.582m11.583-11.582 15.788 4.205m-15.788-4.206-4.205-15.788m19.993 19.994-4.205-15.788-15.788-4.206m19.993 19.994-11.583 11.583-15.788-4.206m0 0-4.205-15.788 11.583-11.583"/></svg>
